design4/cover-ONLY-opt.svg

<?xml version="1.0" encoding="utf-8"?>
<svg viewBox="0 0 585.106 731.669" xmlns="http://www.w3.org/2000/svg" xmlns:xlink="http://www.w3.org/1999/xlink">
  <defs>
    <linearGradient gradientUnits="userSpaceOnUse" x1="300.824" y1="-231.523" x2="300.824" y2="499.52" id="gradient-0" gradientTransform="matrix(1.022769, 0, 0, 1, -0.191397, 0)">
      <stop offset="0" style="stop-color: rgb(69, 191, 239);"/>
      <stop offset="1" style="stop-color: rgb(64, 140, 203);"/>
    </linearGradient>
    <clipPath id="clip-path-2" transform="translate(366.7 591.3)">
      <rect class="cls-17" x="-8.6" width="1212.3" height="738.13" style="fill: none;"/>
    </clipPath>
    <linearGradient gradientUnits="userSpaceOnUse" x1="2189.068" y1="1223.446" x2="2189.068" y2="1746.062" id="gradient-1" gradientTransform="matrix(1, 0, 0, 1, -1225.349487, -414.44754)">
      <stop offset="0" style="stop-color: rgba(255, 255, 255, 0.46);"/>
      <stop offset="1" style="stop-color: rgba(255, 255, 255, 0.02);"/>
    </linearGradient>
    <symbol id="sitepoint-0" viewBox="0 0 134.7286 29.4">
      <g transform="matrix(1, 0, 0, 1, -1360.4713134765625, -610.7000122070312)">
        <path class="cls-26" d="M 1402.8 625.3 C 1401.4 624.4 1399.6 624.2 1397.9 623.8 C 1396.2 623.4 1393.5 621.8 1396 620.4 C 1398.5 619 1401 619.9 1401.3 622.3 L 1403.6 622.3 C 1403.5 619.1 1400.6 617.9 1397.8 618.1 C 1391.4 618 1390.4 625 1397.1 625.8 C 1398.491 625.973 1399.843 626.379 1401.1 627 C 1402.085 627.881 1401.817 629.486 1400.6 630 C 1398.5 630.7 1394.7 630.6 1394.5 627.7 L 1392.2 627.7 C 1392.2 633.1 1401.1 633.7 1403.7 630.1 C 1404.6 628.7 1404.3 626.2 1402.8 625.3 Z" style="fill: rgb(255, 255, 255);"/>
        <rect class="cls-26" x="1406.9" y="618.4" width="2.3" height="13.66" style="fill: rgb(255, 255, 255);"/>
        <path class="cls-26" d="M 1416 614.3 L 1413.7 614.3 L 1413.7 618.4 L 1411.3 618.4 L 1411.3 620.3 L 1413.7 620.3 C 1414 622.2 1413 630.2 1414.5 631.5 C 1416 632.8 1417.5 632 1418.9 632 L 1418.9 630 C 1418 629.9 1416.5 630.4 1416.1 629.5 C 1415.7 628.6 1416.1 620.6 1416 620.3 L 1418.9 620.3 L 1418.9 618.4 L 1416 618.4 Z" style="fill: rgb(255, 255, 255);"/>
        <path class="cls-26" d="M 1432.4 620.7 C 1430.9 618.2 1427.3 617.4 1424.6 618.6 C 1421.9 619.8 1419.9 624.6 1421.1 628 C 1422.6 633.8 1432.5 633.9 1433.5 627.7 L 1431.2 627.7 C 1430 632.4 1422.5 630.5 1423.1 625.9 L 1433.7 625.9 C 1433.769 624.078 1433.318 622.275 1432.4 620.7 Z M 1423.1 623.9 C 1423.4 618.8 1430.9 618.8 1431.2 623.9 Z" style="fill: rgb(255, 255, 255);"/>
        <path class="cls-26" d="M 1447.9 620.2 C 1445.9 617.5 1440.4 617 1438.5 620.2 L 1438.5 620.2 L 1438.5 618.4 L 1436.2 618.4 L 1436.2 637.2 L 1438.5 637.2 L 1438.5 630.2 L 1438.5 630.2 C 1440 632.5 1443.7 632.8 1445.9 631.8 C 1450.1 629.9 1450.5 623.5 1447.9 620.2 Z M 1446.9 627 C 1445.2 633.1 1436.7 630.5 1438.6 623.3 C 1440.5 616.1 1448.7 620.1 1446.9 627 Z" style="fill: rgb(255, 255, 255);"/>
        <path class="cls-26" d="M 1463.4 620.1 C 1461 617.3 1455.7 617.3 1453.2 620.1 C 1450.899 623.111 1450.899 627.289 1453.2 630.3 C 1455.7 633 1461 633 1463.4 630.3 C 1465.81 627.327 1465.81 623.073 1463.4 620.1 Z M 1462.4 627.4 C 1459.7 633.5 1452.1 629.5 1454.3 623 C 1456.5 616.5 1464.6 620.9 1462.4 627.4 Z" style="fill: rgb(255, 255, 255);"/>
        <rect class="cls-26" x="1468" y="618.4" width="2.3" height="13.66" style="fill: rgb(255, 255, 255);"/>
        <path class="cls-26" d="M 1484.6 619.5 C 1482.5 617.2 1477.6 617.7 1476.2 620.5 L 1476.2 620.5 L 1476.2 618.4 L 1474 618.4 L 1474 632 L 1476.3 632 C 1476.7 628.4 1474.4 619.8 1480.5 620 C 1482.097 619.872 1483.428 621.203 1483.3 622.8 L 1483.3 632 L 1485.7 632 C 1485.4 629.4 1486.5 621.5 1484.6 619.5 Z" style="fill: rgb(255, 255, 255);"/>
        <path class="cls-26" d="M 1495.2 620.3 L 1495.2 618.4 L 1492.4 618.4 L 1492.4 614.3 L 1490.1 614.3 L 1490.1 618.4 L 1487.7 618.4 L 1487.7 620.3 L 1490.1 620.3 C 1490.3 622.2 1489.3 630.2 1490.8 631.5 C 1492.3 632.8 1493.9 632 1495.2 632 L 1495.2 630 C 1494.3 629.9 1492.8 630.4 1492.4 629.5 C 1492 628.6 1492.4 620.6 1492.4 620.3 Z" style="fill: rgb(255, 255, 255);"/>
        <path class="cls-26" d="M 1372.9 628 L 1370.2 625.6 L 1370.2 625.6 L 1367.4 622.8 C 1367.03 622.446 1367.03 621.854 1367.4 621.5 L 1375.1 614.1 L 1371.6 610.7 L 1361.1 620.8 C 1359.2 622.6 1362.1 624.5 1363.3 625.7 L 1370 632 L 1372.9 629.2 C 1373.206 628.858 1373.206 628.342 1372.9 628 Z" style="fill: rgb(255, 255, 255);"/>
        <path class="cls-26" d="M 1382 625.1 L 1375.3 618.8 C 1371.7 622.5 1370.7 621.5 1375.1 625.2 L 1375 625.2 L 1377.9 628 C 1378.27 628.354 1378.27 628.946 1377.9 629.3 L 1370.2 636.7 L 1373.7 640.1 L 1384.2 630 C 1386 628.2 1383.2 626.3 1382 625.1 Z" style="fill: rgb(255, 255, 255);"/>
        <path class="cls-26" d="M 1408.1 614.3 C 1407.099 614.3 1406.474 615.383 1406.974 616.25 C 1407.206 616.652 1407.636 616.9 1408.1 616.9 C 1409.8 616.9 1409.8 614.2 1408.1 614.3 Z" style="fill: rgb(255, 255, 255);"/>
        <path class="cls-26" d="M 1469.2 614.3 C 1467.5 614.2 1467.5 616.9 1469.2 616.9 C 1470.201 616.9 1470.826 615.817 1470.326 614.95 C 1470.094 614.548 1469.664 614.3 1469.2 614.3 Z" style="fill: rgb(255, 255, 255);"/>
      </g>
    </symbol>
    <symbol id="bird2" viewBox="0 0 235.3721 291.548">
      <g transform="matrix(0.6645540595054626, 0, 0, 0.6645540595054626, -15.243940108337938, -18.44091796875)" style="">
        <path fill-rule="evenodd" clip-rule="evenodd" d="M203.896 28.2574L190.398 204.343L52.6811 160.232L141.328 319.801L198.377 323.584L200.352 327.746L22.9386 409.956L143.773 402.409L76.5342 465.122L231.179 399.027L288.14 394.54L289.487 394.931L289.484 394.468L289.852 394.449L326.827 338.828L355.455 296.112L334.312 328.028L376.681 345.616L355.455 296.112L302.358 290.221L288.878 302.79L288.179 170.921L203.896 28.2574ZM221.505 86.9816C221.09 90.7158 217.727 93.4073 213.993 92.993C210.259 92.5787 207.567 89.2156 207.982 85.4813C208.396 81.747 211.759 79.0556 215.493 79.4699C219.228 79.8842 221.919 83.2473 221.505 86.9816Z" fill="#FFFAFA"/>
      </g>
      <path d="M 2011.965 948.515 L 2081.939 944.79 L 2107.121 908.99 L 2090.25 875.525 L 2011.965 948.515 Z" fill="url(#paint0_linear)" style="" transform="matrix(1, 0, 0, 1, -1904.2689645224007, -700.9050292968751)"/>
      <g transform="matrix(0.6645540595054626, 0, 0, 0.6645540595054626, -15.243940108337938, -18.44091796875)" style="">
        <path d="M288.588 303.273L258.886 326.137L288.879 395.87L288.588 303.273Z" fill="#C4C4C4"/>
      </g>
      <path d="M 1924.253 789.8 L 1983.237 895.182 L 2043.234 899.16 L 2023.719 821.431 L 1924.253 789.8 Z" fill="url(#paint1_linear)" style="" transform="matrix(1, 0, 0, 1, -1904.2689645224007, -700.9050292968751)"/>
      <path fill-rule="evenodd" clip-rule="evenodd" d="M 2024.497 700.905 L 2080.499 796.381 L 2013.534 853.176 L 2024.497 700.905 Z" fill="url(#paint2_linear)" style="" transform="matrix(1, 0, 0, 1, -1904.2689645224007, -700.9050292968751)"/>
      <path d="M 2090.25 875.525 L 2106.511 907.827 L 2125.536 879.439 L 2090.25 875.525 Z" fill="url(#paint3_radial)" style="" transform="matrix(1, 0, 0, 1, -1904.2689645224007, -700.9050292968751)"/>
      <path d="M 1904.561 955.095 L 2032.826 895.66 L 2047.492 927.311 L 1940.178 991.756 L 2043.023 947.346 L 1904.561 955.095 Z" fill="url(#paint4_linear)" style="" transform="matrix(1, 0, 0, 1, -1904.2689645224007, -700.9050292968751)"/>
      <path d="M 2032.422 896.356 L 2050.728 944.188 L 1939.774 992.453 L 1987.859 946.985 L 2032.422 896.356 Z" fill="url(#paint5_linear)" style="" transform="matrix(1, 0, 0, 1, -1904.2689645224007, -700.9050292968751)"/>
      <path d="M 2080.499 796.381 C 2041.823 822.538 2023.389 836.069 2001.099 855.444 L 2044.637 947.859 C 2059.68 948.203 2067.664 947.711 2081.294 945.908 L 2080.499 796.381 Z" fill="url(#paint6_linear)" style="" transform="matrix(1, 0, 0, 1, -1904.2689645224007, -700.9050292968751)"/>
      <path d="M 2139.641 912.338 L 2125.536 879.439 L 2111.485 900.649 L 2139.641 912.338 Z" fill="url(#paint7_linear)" style="" transform="matrix(1, 0, 0, 1, -1904.2689645224007, -700.9050292968751)"/>
    </symbol>
    <linearGradient id="paint0_linear" x1="317.04" y1="400.503" x2="236.097" y2="327.295" gradientUnits="userSpaceOnUse" gradientTransform="matrix(0.664554, 0, 0, 0.664554, 1889.025071, 682.464128)">
      <stop stop-color="white"/>
      <stop offset="0.6961" stop-color="#E9E9EA"/>
      <stop offset="0.8572" stop-color="#C5C6C8"/>
    </linearGradient>
    <linearGradient id="paint1_linear" x1="103.618" y1="247.477" x2="187.877" y2="225.418" gradientUnits="userSpaceOnUse" gradientTransform="matrix(0.664554, 0, 0, 0.664554, 1889.025071, 682.464128)">
      <stop stop-color="white"/>
      <stop offset="0.7708" stop-color="#E9E9EA"/>
      <stop offset="1" stop-color="#D6D7D8"/>
    </linearGradient>
    <linearGradient id="paint2_linear" x1="187.124" y1="146.108" x2="239.33" y2="217.704" gradientUnits="userSpaceOnUse" gradientTransform="matrix(0.664554, 0, 0, 0.664554, 1889.025071, 682.464128)">
      <stop stop-color="white"/>
      <stop offset="0.7708" stop-color="#E9E9EA"/>
      <stop offset="0.9896" stop-color="#C5C6C8"/>
    </linearGradient>
    <radialGradient id="paint3_radial" cx="0" cy="0" r="1" gradientUnits="userSpaceOnUse" gradientTransform="matrix(-18.09778, 14.48299, -29.839284, -37.286832, 2121.47149, 891.356683)">
      <stop stop-color="white"/>
      <stop offset="0.7708" stop-color="#E9E9EA"/>
      <stop offset="0.9896" stop-color="#C5C6C8"/>
    </radialGradient>
    <linearGradient id="paint4_linear" x1="119.656" y1="379.985" x2="165.169" y2="427.621" gradientUnits="userSpaceOnUse" gradientTransform="matrix(0.664554, 0, 0, 0.664554, 1889.025071, 682.464128)">
      <stop stop-color="white"/>
      <stop offset="0.3919" stop-color="#E9E9EA"/>
      <stop offset="0.9896" stop-color="#C5C6C8"/>
    </linearGradient>
    <linearGradient id="paint5_linear" x1="133.279" y1="383.638" x2="155.113" y2="443.54" gradientUnits="userSpaceOnUse" gradientTransform="matrix(0.664554, 0, 0, 0.664554, 1889.025071, 682.464128)">
      <stop stop-color="white"/>
      <stop offset="0.3919" stop-color="#E9E9EA"/>
      <stop offset="0.9896" stop-color="#C5C6C8"/>
    </linearGradient>
    <linearGradient id="paint6_linear" x1="228.986" y1="264.713" x2="313.492" y2="276.667" gradientUnits="userSpaceOnUse" gradientTransform="matrix(0.664554, 0, 0, 0.664554, 1889.025071, 682.464128)">
      <stop stop-color="white"/>
      <stop offset="0.7708" stop-color="#E9E9EA"/>
      <stop offset="0.9896" stop-color="#C5C6C8"/>
    </linearGradient>
    <linearGradient id="paint7_linear" x1="370.039" y1="337.908" x2="339.022" y2="316.277" gradientUnits="userSpaceOnUse" gradientTransform="matrix(0.664554, 0, 0, 0.664554, 1889.025071, 682.464128)">
      <stop stop-color="white"/>
      <stop offset="0.7708" stop-color="#E9E9EA"/>
      <stop offset="0.9896" stop-color="#C5C6C8"/>
    </linearGradient>
  </defs>
  <g transform="matrix(1, 0, 0, 1, -8.406, 231.522995)">
    <rect x="8.406" y="-231.523" width="598.152" height="731.043" style="fill: url(#gradient-0);"/>
    <g id="cloud" transform="matrix(1.024421, 0, 0, 1, -1002.13678, -830.012878)" style="">
      <g class="cls-22" style="clip-path: url(#clip-path-2);">
        <path class="cls-26" d="M 1569.819 1062.62 L 1569.819 1331.614 L 986.453 1331.614 L 986.453 810.751 C 1054.44 818.169 1117.682 849.389 1154.519 894.12 C 1193.719 941.72 1202.019 1003.62 1176.119 1056.42 C 1200.619 1044.62 1234.419 1045.32 1257.219 1058.92 C 1280.019 1072.52 1290.219 1097.52 1281.419 1118.82 C 1289.919 1102.52 1312.319 1095.12 1334.519 1099.42 C 1356.719 1103.72 1372.819 1121.72 1370.319 1139.22 C 1393.419 1098.42 1442.419 1071.42 1499.019 1062.52 C 1522.521 1058.954 1546.428 1058.988 1569.919 1062.62 Z" style="fill: url(#gradient-1);"/>
        <path class="cls-26" d="M 1574.4 1330.869 L 986.453 1331.567 L 986.453 1014.667 C 1024.603 1019.498 1061.224 1030.901 1092.2 1048.8 C 1168 1092.6 1204.4 1173.8 1177.4 1243.8 C 1195.1 1216.4 1235.6 1201.3 1275.3 1199.1 C 1315 1196.9 1355.6 1212 1378.1 1237.2 C 1400.6 1262.4 1404.4 1296.9 1387.6 1324.7 C 1418.4 1283.2 1489.3 1264 1548.8 1277.7 C 1556.158 1279.389 1563.378 1281.629 1570.4 1284.4 Z" style="fill: rgba(255, 255, 255, 0.18);"/>
      </g>
    </g>
    <use width="134.72860717773438" height="29.399999618530273" transform="matrix(0.961373, 0, 0, 0.961373, 396.968933, -176.663467)" style="" xlink:href="#sitepoint-0"/>
    <use width="235.4" height="292" transform="matrix(0.928957, 0, 0, 0.928957, 74.75618, 110.830917)" style="" xlink:href="#bird2"/>
    <g transform="matrix(1, 0, 0, 1, -971.138855, -824.884888)">
      <text style="fill: rgb(255, 255, 255); font-family: Inter; font-size: 31px; font-weight: 600; text-anchor: end; white-space: pre;" x="1523.81" y="767.017">THE PRINCIPLES OF</text>
      <text style="fill: rgb(255, 255, 255); font-family: Inter; font-size: 20px; font-weight: 600; text-anchor: end; white-space: pre;" x="1523.8" y="929.247">FOURTH EDITION</text>
      <text style="fill: rgb(255, 255, 255); font-family: Roboto; font-size: 16px; font-weight: 700; letter-spacing: 0.9px; text-anchor: end; white-space: pre;" x="1503.03" y="1278.02">DESIGNING GREAT WEB SITES IS NOT ROCKET SCIENCE!</text>
      <text transform="matrix(1, 0, 0, 1, -684.71875, -113.281532)" style="fill: rgb(255, 255, 255); font-family: Inter; font-size: 16px; font-weight: 500; text-anchor: end; white-space: pre;"><tspan x="2208.52" y="1065.1">BY JASON BEAIRD,</tspan><tspan x="2208.52" dy="1em">​</tspan><tspan>JAMES GEORGE,</tspan><tspan x="2208.52" dy="1em">​</tspan><tspan>&amp; ALEX WALKER</tspan></text>
    </g>
  </g>
  <text transform="matrix(1, 0, 0, 1, 358.535706, 32.603996)" style="fill: rgb(255, 255, 255); font-family: Inter; font-size: 74px; font-weight: 500; letter-spacing: -2.6px; text-anchor: end; white-space: pre;"><tspan x="194.685" y="207.68">BEAUTIFUL</tspan><tspan x="194.685" dy="0.9em">​</tspan><tspan>WEB DESIGN</tspan></text>
</svg>

<?xml version="1.0" encoding="utf-8"?>
<svg viewBox="0 0 585.1 728" xmlns="http://www.w3.org/2000/svg" xmlns:xlink="http://www.w3.org/1999/xlink">
  <defs>
    <style>
  @import url('https://fonts.googleapis.com/css2?family=Inter:wght@500&amp;display=swap');
    text{
      font-family: Inter, Arial, Helvetica, sans-serif;
      white-space:pre; 
      fill: #fff; 
    }
  </style>
    <linearGradient gradientUnits="userSpaceOnUse" x1="300.8" y1="-231.5" x2="300.8" y2="499.5" id="i" gradientTransform="matrix(1.02277 0 0 1 -.2 0)">
      <stop offset="0" stop-color="#45bfef"/>
      <stop offset="1" stop-color="#408ccb"/>
    </linearGradient>
    <linearGradient gradientUnits="userSpaceOnUse" x1="2189.1" y1="1223.4" x2="2189.1" y2="1746.1" id="k" gradientTransform="translate(-1225.3 -414.4)">
      <stop offset="0" stop-color="rgba(255,255,255,.46)"/>
      <stop offset="1" stop-color="rgba(255,255,255,.02)"/>
    </linearGradient>
    <linearGradient id="a" x1="317" y1="400.5" x2="236.1" y2="327.3" gradientUnits="userSpaceOnUse" gradientTransform="matrix(.66455 0 0 .66455 1889 682.5)">
      <stop stop-color="#fff"/>
      <stop offset="0.7" stop-color="#E9E9EA"/>
      <stop offset="0.9" stop-color="#C5C6C8"/>
    </linearGradient>
    <linearGradient id="b" x1="103.6" y1="247.5" x2="187.9" y2="225.4" gradientUnits="userSpaceOnUse" gradientTransform="matrix(.66455 0 0 .66455 1889 682.5)">
      <stop stop-color="#fff"/>
      <stop offset="0.8" stop-color="#E9E9EA"/>
      <stop offset="1" stop-color="#D6D7D8"/>
    </linearGradient>
    <linearGradient id="c" x1="187.1" y1="146.1" x2="239.3" y2="217.7" gradientUnits="userSpaceOnUse" gradientTransform="matrix(.66455 0 0 .66455 1889 682.5)">
      <stop stop-color="#fff"/>
      <stop offset="0.8" stop-color="#E9E9EA"/>
      <stop offset="1" stop-color="#C5C6C8"/>
    </linearGradient>
    <linearGradient id="e" x1="119.7" y1="380" x2="165.2" y2="427.6" gradientUnits="userSpaceOnUse" gradientTransform="matrix(.66455 0 0 .66455 1889 682.5)">
      <stop stop-color="#fff"/>
      <stop offset="0.4" stop-color="#E9E9EA"/>
      <stop offset="1" stop-color="#C5C6C8"/>
    </linearGradient>
    <linearGradient id="f" x1="133.3" y1="383.6" x2="155.1" y2="443.5" gradientUnits="userSpaceOnUse" gradientTransform="matrix(.66455 0 0 .66455 1889 682.5)">
      <stop stop-color="#fff"/>
      <stop offset="0.4" stop-color="#E9E9EA"/>
      <stop offset="1" stop-color="#C5C6C8"/>
    </linearGradient>
    <linearGradient id="g" x1="229" y1="264.7" x2="313.5" y2="276.7" gradientUnits="userSpaceOnUse" gradientTransform="matrix(.66455 0 0 .66455 1889 682.5)">
      <stop stop-color="#fff"/>
      <stop offset="0.8" stop-color="#E9E9EA"/>
      <stop offset="1" stop-color="#C5C6C8"/>
    </linearGradient>
    <linearGradient id="h" x1="370" y1="337.9" x2="339" y2="316.3" gradientUnits="userSpaceOnUse" gradientTransform="matrix(.66455 0 0 .66455 1889 682.5)">
      <stop stop-color="#fff"/>
      <stop offset="0.8" stop-color="#E9E9EA"/>
      <stop offset="1" stop-color="#C5C6C8"/>
    </linearGradient>
    <symbol id="l" viewBox="0 0 134.7 29.4">
      <path class="cls-26" d="M1402.8 625.3c-1.4-.9-3.2-1.1-4.9-1.5-1.7-.4-4.4-2-1.9-3.4 2.5-1.4 5-.5 5.3 1.9h2.3c-.1-3.2-3-4.4-5.8-4.2-6.4-.1-7.4 6.9-.7 7.7 1.4.2 2.7.6 4 1.2 1 .9.7 2.5-.5 3-2.1.7-5.9.6-6.1-2.3h-2.3c0 5.4 8.9 6 11.5 2.4.9-1.4.6-3.9-.9-4.8zM1406.9 618.4h2.3v13.7h-2.3zM1416 614.3h-2.3v4.1h-2.4v1.9h2.4c.3 1.9-.7 9.9.8 11.2 1.5 1.3 3 .5 4.4.5v-2c-.9-.1-2.4.4-2.8-.5-.4-.9 0-8.9-.1-9.2h2.9v-1.9h-2.9zM1432.4 620.7c-1.5-2.5-5.1-3.3-7.8-2.1-2.7 1.2-4.7 6-3.5 9.4 1.5 5.8 11.4 5.9 12.4-.3h-2.3c-1.2 4.7-8.7 2.8-8.1-1.8h10.6c0-1.8-.4-3.6-1.3-5.2zm-9.3 3.2c.3-5.1 7.8-5.1 8.1 0zM1447.9 620.2c-2-2.7-7.5-3.2-9.4 0v-1.8h-2.3v18.8h2.3v-7c1.5 2.3 5.2 2.6 7.4 1.6 4.2-1.9 4.6-8.3 2-11.6zm-1 6.8c-1.7 6.1-10.2 3.5-8.3-3.7 1.9-7.2 10.1-3.2 8.3 3.7zM1463.4 620.1c-2.4-2.8-7.7-2.8-10.2 0a8.4 8.4 0 000 10.2c2.5 2.7 7.8 2.7 10.2 0 2.4-3 2.4-7.2 0-10.2zm-1 7.3c-2.7 6.1-10.3 2.1-8.1-4.4 2.2-6.5 10.3-2.1 8.1 4.4zM1468 618.4h2.3v13.7h-2.3zM1484.6 619.5c-2.1-2.3-7-1.8-8.4 1v-2.1h-2.2V632h2.3c.4-3.6-1.9-12.2 4.2-12 1.6-.1 3 1.2 2.8 2.8v9.2h2.4c-.3-2.6.8-10.5-1.1-12.5zM1495.2 620.3v-1.9h-2.8v-4.1h-2.3v4.1h-2.4v1.9h2.4c.2 1.9-.8 9.9.7 11.2 1.5 1.3 3.1.5 4.4.5v-2c-.9-.1-2.4.4-2.8-.5-.4-.9 0-8.9 0-9.2zM1372.9 628l-2.7-2.4-2.8-2.8a.9.9 0 010-1.3l7.7-7.4-3.5-3.4-10.5 10.1c-1.9 1.8 1 3.7 2.2 4.9l6.7 6.3 2.9-2.8c.3-.3.3-.9 0-1.2z" fill="#fff" transform="translate(-1360.5 -610.7)"/>
      <path class="cls-26" d="M1382 625.1l-6.7-6.3c-3.6 3.7-4.6 2.7-.2 6.4h-.1l2.9 2.8c.4.4.4 1 0 1.3l-7.7 7.4 3.5 3.4 10.5-10.1c1.8-1.8-1-3.7-2.2-4.9zM1408.1 614.3a1.3 1.3 0 100 2.6c1.7 0 1.7-2.7 0-2.6zM1469.2 614.3c-1.7-.1-1.7 2.6 0 2.6a1.3 1.3 0 100-2.6z" fill="#fff" transform="translate(-1360.5 -610.7)"/>
    </symbol>
    <symbol id="m" viewBox="0 0 235.4 291.5">
      <path fill-rule="evenodd" clip-rule="evenodd" d="M203.9 28.3l-13.5 176-137.7-44 88.6 159.5 57 3.8 2 4.1L23 410l120.9-7.6-67.3 62.7 154.7-66 57-4.6 1.3.4v-.4h.4l37-55.7 28.6-42.7-21.2 32 42.4 17.5-21.2-49.5-53.1-5.9-13.5 12.6-.7-131.9-84.3-142.6zM221.5 87a6.8 6.8 0 11-13.5-1.5 6.8 6.8 0 0113.5 1.5z" fill="snow" transform="matrix(.66455 0 0 .66455 -15.2 -18.4)"/>
      <path d="M2012 948.5l70-3.7L2107 909l-16.8-33.5-78.3 73z" fill="url(#a)" transform="translate(-1904.3 -701)"/>
      <path d="M288.6 303.3L258.9 326l30 69.8-.3-92.6z" fill="#C4C4C4" transform="matrix(.66455 0 0 .66455 -15.2 -18.4)"/>
      <path d="M1924.3 789.8l59 105.4 60 4-19.6-77.8-99.4-31.6z" fill="url(#b)" transform="translate(-1904.3 -701)"/>
      <path fill-rule="evenodd" clip-rule="evenodd" d="M2024.5 700.9l56 95.5-67 56.8 11-152.3z" fill="url(#c)" transform="translate(-1904.3 -701)"/>
      <path d="M2090.3 875.5l16.2 32.3 19-28.4-35.3-3.9z" fill="url(#d)" transform="translate(-1904.3 -701)"/>
      <path d="M1904.6 955.1l128.2-59.4 14.7 31.6-107.3 64.5 102.8-44.5-138.4 7.8z" fill="url(#e)" transform="translate(-1904.3 -701)"/>
      <path d="M2032.4 896.4l18.3 47.8-111 48.3L1988 947l44.5-50.6z" fill="url(#f)" transform="translate(-1904.3 -701)"/>
      <path d="M2080.5 796.4a740.5 740.5 0 00-79.4 59l43.5 92.5c15 .3 23-.2 36.7-2l-.8-149.5z" fill="url(#g)" transform="translate(-1904.3 -701)"/>
      <path d="M2139.6 912.3l-14-32.9-14.1 21.2 28.1 11.7z" fill="url(#h)" transform="translate(-1904.3 -701)"/>
    </symbol>
    <radialGradient id="d" cx="0" cy="0" r="1" gradientUnits="userSpaceOnUse" gradientTransform="matrix(-18.09778 14.48299 -29.83928 -37.28683 2121.5 891.4)">
      <stop stop-color="#fff"/>
      <stop offset="0.8" stop-color="#E9E9EA"/>
      <stop offset="1" stop-color="#C5C6C8"/>
    </radialGradient>
  </defs>
  <rect fill="url(#i)" width="585.1" height="728"/>
  <g class="clouds" clip-path="url(#j)" transform="matrix(1.003232, 0, 0, 1, -990.199951, -602.889954)" style="clip-path: url(#clip-path-0);">
    <path class="cls-26" d="M1569.8 1062.6v269H986.5V810.8c68 7.4 131.2 38.6 168 83.3 39.2 47.6 47.5 109.5 21.6 162.3a91 91 0 0181.1 2.5c22.8 13.6 33 38.6 24.2 60 8.5-16.4 31-23.8 53.1-19.5 22.2 4.3 38.3 22.3 35.8 39.8 23.1-40.8 72.1-67.8 128.7-76.7 23.5-3.5 47.4-3.5 71 .1z" fill="url(#k)"/>
    <path class="cls-26" d="M1574.4 1330.9l-588 .7v-317a283.8 283.8 0 01105.8 34.2c75.8 43.8 112.2 125 85.2 195 17.7-27.4 58.2-42.5 97.9-44.7 39.7-2.2 80.3 12.9 102.8 38.1a73 73 0 019.5 87.5c30.8-41.5 101.7-60.7 161.2-47 7.4 1.7 14.6 4 21.6 6.7z" fill="rgba(255,255,255,.18)"/>
  </g>
  <use width="134.7" height="29.4" x="400" y="50" xlink:href="#l"/>
  <use width="235.4" height="292" transform="matrix(0.805435, 0, 0, 0.805435, 79.080086, 360.350128)" style="" xlink:href="#m"/>
  <text font-size="74" font-weight="500" letter-spacing="-2.6" style="text-anchor: middle;">
    <tspan x="364.7" y="247.7">BEAUTIFUL</tspan><tspan x="364.7" dy=".9em">​</tspan><tspan>WEB DESIGN</tspan>
  </text>
  <text x="394" y="178.5" font-size="31" font-weight="600" style="white-space: pre; font-size: 31px; text-anchor: middle;">
        THE PRINCIPLES OF
      </text>
  <text style="white-space: pre; font-size: 20px; text-anchor: middle;" x="461" y="347" font-size="20" font-weight="600">
        FOURTH EDITION
      </text>
  <text style="white-space: pre;" font-size="16" font-weight="500">
        <tspan x="548" y="372" style="text-anchor:end">BY JASON BEAIRD,</tspan><tspan x="550" dy="1em" style="text-anchor:end">​</tspan><tspan style="text-anchor:end">JAMES GEORGE,</tspan><tspan x="575" dy="1em" style="text-anchor:end">​</tspan><tspan style="text-anchor:end">&amp; ALEX WALKER</tspan>
      </text>
  <text style="white-space: pre; font-weight: 700; font-size: 17px; text-anchor: middle;" x="296.352" y="670.972">
        DESIGNING GREAT WEB SITES IS NOT ROCKET SCIENCE!
      </text>
</svg>
